!!!OTL: ALS KAISER KARL IM WEITEN ZUGE
!!!ARE: Europa, Mitteleuropa, Deutschland
!!!SCT: B0132
!!!YEM: Copyright 1995, estate of Helmut Schaffrath.
**kern
*ICvox
*Ivox
*M4/4
*k[b-e-a-]
*E-:
{8B-
8G
8A-
=1
4B-
4B-
4.e-
8G
=2
8G
8A-
4A-
8r}
{8A-
8G
8F
=3
4G
4B-
4e-
8d
8c
=4
2B-
4r}
{4B-
=5
4.A-
8f
8e-
8d
8c
8B-
=6
8.B-
16e-
4e-
8r}
{8e-
8d
8e-
=7
4c
4f
4e-
4d
=8
4e-
4.r}
==
!!!AGN: Ballade, Romanze
!!!ONB: ESAC (Essen Associative Code) Database: BOEHME
!!!AMT: simple quadruple
!!!AIN: vox
!!!EED: Helmut Schaffrath
!!!EEV: 1.0
*-
